X:1
T: Double Jig
C:
R:Jig
Q:180
K:A
M:6/8
L:1/16
|:(3EFG|A2c2B2 A2f2d2|c2e2a2 c2e2a2|A2c2B2 A2G2A2|G2B2d2 G2B2d2|
A2c2B2 A2f2d2|c2e2a2 c2e2a2|f2d2B2 A2B2c2|B2A2B2 A4:|
|:c2|e2a2f2 f2a2f2|f2a2f2 e2c2A2|d2f2d2 e2c2A2|e2c2A2 B4A2|
e2a2f2 f2a2f2|f2a2f2 e2c2A2|d2f2d2 e2c2A2|E2F2G2 A4:|
